X:1
T:Evening Breezes Waltz 
T:Charles James Dorn (1839 - 1909)
T:Guitar Album, Op.27
%%score { ( 1 2 3 ) ( 4 5 6 ) }
L:1/8
Q:1/4=184
M:3/4
K:D
V:1 treble-8 nm="Guitare classique"
V:2 treble-8 
V:3 treble-8 
V:4 tab stafflines=6 strings=E2,A2,D3,G3,B3,E4 nostems nm="Guitare classique [Tablature]"
V:5 tab stafflines=6 strings=E2,A2,D3,G3,B3,E4 nostems 
V:6 tab stafflines=6 strings=E2,A2,D3,G3,B3,E4 nostems 
V:1
"_" A2 | A4 B2- | B2!<(! c2 d2!<)! | A4 B2- | B2!<(! c2 d2!<)! | A4 B2 | c4 d2 | d6 | c2 x2 A2 | %9
 A4 c2- | c2 ^d2 e2 | A4 c2- | c2 ^d2 e2 | A2 c2 =d2 | [Ge]2 f2 g2 |!>(! [^G^e]6 | %16
 [Adf]2!>)! z2 A2 | A4 B2- | B2!<(! c2 d2!<)! | A4 B2- | B2!<(! c2 d2!<)! | ^d4 B2 | ^A4 B2 | %23
"_" [GBg]6- | [GBg]2 x2 (fe) |!>(! e4 [EGB]2!>)! | [EGB]4 (!4!e!2!d) | !2!d4 [FA]2 | %28
 [FA]4 !1!A!1!_A | G2 z2 =A2 | [Gcf]4 e2 | [Gce]6 | [Fd]4 |: a2 | [ca]2 _a2 g2- | g2 B2 c2 | %36
 e2 d2 F2- | F2 c2 B2 | !>!B4 A2- | A2 c2 B2 | !>!B4 A2- | A2 a2 a2 |!<(! a2 ^a2 b2!<)! | %43
 [fb]2 a2 f2 | [Ba]4 g2- | g2 f2 e2 | [Fd]2 A2 d2 | [Gc]2 f2 e2 | [Gce]6 | [Fd]4!fine! :|[K:G] d2 | %51
 c4 c2 | f4 e2 | e4 d2 | B4 g2 | g4 f2 | c4 f2 | e4 d2 | B4 z2 | B4 B2 | e4 B2 | d4 c2 | c2 B2 A2 | %63
 [GB]2 d2 G2 | A2 c2 F2 | A2 c2 f2 | [GBg]4 x2 ||"_" [GBg]3 f e2- | eB ^A2 B2 | d3 c A2- | %70
 AA ^G2 A2 | [^DB]3 [DB] [DB-]2 | BB ^A2 B2 | [GB]3 [GB] [GB-]2 | BB ^A2 B2 | [GBg]3 f e2- | %76
 ee ^d2 e2 |"^₵5" [cea]3 !3!b !4!c'2- | c'c' b2 c'2 | !-(![GBb]2 !-)!e'2 e2 | %80
 [ABg][ABg] [ABg]2 !3![ABf]2 | [ABg][ABg] [ABg]2 [ABf]2 | !arpeggio![B,EGBe]2 x2 |: !4!d2 | e6 | %85
 (A!<(!^G)AGA!4!^A!<)! | B6 | (d^c)dcdg | g4 z f | e4 z f | e6 | d4 z ^d | !>!e6 | B^ABABd | %94
 !>!c6 | A,cB,BCA | ([GB]d)!<(!cBAG!<)! | AcBAGF | G3 [GBg] [GBg]2 | [GBg]4!D.C.! |] %100
V:2
 z2 | D6 | F6 | D6 | F6 | D6 | F6 | E6 | G2 z2 x2 | C4 z2 | A,4 z2 | C4 z2 | A,4 z2 | C4 z2 | %14
 A,4 z2 | D6- | D4 z2 | D6 | F6 | D6 | F6 | B,6- | B,4 x2 | E,4 G,2 | B,2 z2 x2 | G,6- | G,6 | %27
 A,6- | A,4 z2 | C4 z2 | A,6 | D6 | D4 |: z2 | A,6 | A,6 | D4 z2 | A,6 | C6 | A,6 | D6 | A,6 | %42
 C2 z2 z2 | !1!^D2 z2 z2 | E,6 | G,6 | A,6 | A,6 | D6 | D4 :|[K:G] z2 | F,2 D2 A2 | F,2 D2 A2 | %53
 G,2 D2 G2 | G,2 D2 G2 | A,2 D2 A2 | F,2 D2 A2 | G,2 D2 G2 | G,2 B,2 D2 | E,2 E2 ^G2 | E,2 E2 ^G2 | %61
 A,2 E2 A2 | A,2 B,2 C2 | D4 z2 | D4 z2 | D6 | G,4 z2 || E,6 | E,6 | A,6 | A,6 | B,6 | B,6 | E,6 | %74
 E,6 | E,6 | E,6 | A,6 | A,6 | B,2 z2 z2 | B,4 z2 | B,4 ^D2 | E,2 z2 |: z2 | F,6 | F,6 | G,6 | %87
 B,6 | A,6 | F,6 | G,6 | B,6 | E,6 | E,6 | A,6 | A,2 B,2 C2 | D6 | D6 | G,6 | G,4 |] %100
V:3
 x2 | x6 | x6 | x6 | x6 | x6 | x6 | x6 | x6 | x6 | x6 | x6 | x6 | x6 | x6 | x6 | x6 | x6 | x6 | %19
 x6 | x6 | x6 | x6 | x6 | x6 | x6 | x6 | x6 | x6 | x6 | x6 | x6 | x4 |: x2 | x6 | x6 | x6 | x6 | %38
 x6 | x6 | x6 | x6 | x6 | x6 | x6 | x6 | x6 | x6 | x6 | x4 :|[K:G] x2 | x6 | x6 | x6 | x6 | x6 | %56
 x6 | x6 | x6 | x6 | x6 | x6 | x6 | x6 | x6 | x6 | x6 || x6 | x6 | x6 | x6 | x6 | x6 | x6 | x6 | %75
 x6 | x6 | x6 | x6 | x6 | x6 | x6 | x4 |: x2 | z2 !3![DA]2 [DA]2 | x6 | z2 [DG]2 [DG]2 | x6 | %88
 z2 [DA]2 [DA]2 | z2 [DA]2 [DA]2 | z2 [DG]2 [DG]2 | z2 [DG]2 [DG]2 | z2 [E^G]2 [EG]2 | x6 | %94
 z2 [EA]2 [EA]2 | x6 | x6 | x6 | x6 | x4 |] %100
V:4
 !3!A,2 | !3!A,4 !2!B,2- | !2!B,2 !2!C2 !2!D2 | !3!A,4 !2!B,2- | !2!B,2 !2!C2 !2!D2 | %5
 !3!A,4 !2!B,2 | !2!C4 !2!D2 | !2!D6 | !2!C2 x2 !3!A,2 | !3!A,4 !2!C2- | !2!C2 !2!^D2 !1!E2 | %11
 !3!A,4 !2!C2- | !2!C2 !2!^D2 !1!E2 | !3!A,2 !2!C2 !2!=D2 | [!3!G,!1!E]2 !1!F2 !1!G2 | %15
 [!3!^G,!1!^E]6 | [!3!A,!2!D!1!F]2 x2 !3!A,2 | !3!A,4 !2!B,2- | !2!B,2 !2!C2 !2!D2 | %19
 !3!A,4 !2!B,2- | !2!B,2 !2!C2 !2!D2 | !2!^D4 !2!B,2 | !3!^A,4 !2!B,2 | [!3!G,!2!B,!1!G]6- | %24
 [!3!G,!2!B,!1!G]2 x2 (!1!F !1!E) | !1!E4 [!4!E,!3!G,!2!B,]2 | [!4!E,!3!G,!2!B,]4 (!2!E !2!D) | %27
 !2!D4 [!4!F,!3!A,]2 | [!4!F,!3!A,]4 !3!A, !3!_A, | !3!G,2 x2 !3!=A,2 | [!3!G,!2!C!1!F]4 !1!E2 | %31
 [!3!G,!2!C!1!E]6 | [!4!F,!2!D]4 |: !1!A2 | [!2!C!1!A]2 !1!_A2 !1!G2- | !1!G2 !2!B,2 !2!C2 | %36
 !1!E2 !2!D2 !4!F,2- | !4!F,2 !2!C2 !2!B,2 | !2!B,4 !3!A,2- | !3!A,2 !2!C2 !2!B,2 | %40
 !2!B,4 !3!A,2- | !3!A,2 !1!A2 !1!A2 | !1!A2 !1!^A2 !1!B2 | [!2!F!1!B]2 !1!A2 !1!F2 | %44
 [!2!B,!1!A]4 !1!G2- | !1!G2 !1!F2 !1!E2 | [!4!F,!2!D]2 !3!A,2 !2!D2 | [!3!G,!2!C]2 !1!F2 !1!E2 | %48
 [!3!G,!2!C!1!E]6 | [!4!F,!2!D]4 :|[K:G] !2!D2 | !2!C4 !2!C2 | !1!F4 !1!E2 | !1!E4 !2!D2 | %54
 !2!B,4 !1!G2 | !1!G4 !1!F2 | !2!C4 !1!F2 | !1!E4 !2!D2 | !2!B,4 x2 | !2!B,4 !2!B,2 | %60
 !1!E4 !2!B,2 | !2!D4 !2!C2 | !2!C2 !2!B,2 !3!A,2 | [!3!G,!2!B,]2 !2!D2 !3!G,2 | %64
 !3!A,2 !2!C2 !4!F,2 | !3!A,2 !2!C2 !1!F2 | [!3!G,!2!B,!1!G]4 x2 || [!3!G,!2!B,!1!G]3 !1!F !1!E2- | %68
 !1!E !2!B, !3!^A,2 !2!B,2 | !2!D3 !2!C !3!A,2- | !3!A, !3!A, !3!^G,2 !3!A,2 | %71
 [!4!^D,!2!B,]3 [!4!D,!2!B,] [!4!D,!2!B,-]2 | !2!B, !2!B, !3!^A,2 !2!B,2 | %73
 [!3!G,!2!B,]3 [!3!G,!2!B,] [!3!G,!2!B,-]2 | !2!B, !2!B, !3!^A,2 !2!B,2 | %75
 [!3!G,!2!B,!1!G]3 !1!F !1!E2- | !1!E !1!E !2!^D2 !1!E2 | [!3!C!2!E!1!A]3 !1!B !1!c2- | %78
 !1!c !1!c !1!B2 !1!c2 | !-(![!3!G,!2!B,!1!B]2 !-)!!1!e2 !1!E2 | %80
 [!3!A,!2!B,!1!G] [!3!A,!2!B,!1!G] [!3!A,!2!B,!1!G]2 [!3!A,!2!B,!1!F]2 | %81
 [!3!A,!2!B,!1!G] [!3!A,!2!B,!1!G] [!3!A,!2!B,!1!G]2 [!3!A,!2!B,!1!F]2 | %82
 [!5!B,,!4!E,!3!G,!2!B,!1!E]2 x2 |: !2!D2 | !1!E6 | (!3!A, !3!^G,) !3!A, !3!G, !3!A, !3!^A, | %86
 !2!B,6 | (!2!D !2!^C) !2!D !2!C !2!D !1!G | !1!G4 x !1!F | !1!E4 x !1!F | !1!E6 | !2!D4 x !2!^D | %92
 !1!E6 | !2!B, !3!^A, !2!B, !3!A, !2!B, !2!D | !2!C6 | !5!A,, !2!C !5!B,, !2!B, !5!C, !3!A, | %96
 ([!3!G,!2!B,] !2!D) !2!C !2!B, !3!A, !3!G, | !3!A, !2!C !2!B, !3!A, !3!G, !4!F, | %98
 !3!G,3 [!3!G,!2!B,!1!G] [!3!G,!2!B,!1!G]2 | [!3!G,!2!B,!1!G]4 |] %100
V:5
 x2 | !4!D,6 | !4!F,6 | !4!D,6 | !4!F,6 | !4!D,6 | !4!F,6 | !4!E,6 | !3!G,2 x2 x2 | !5!C,4 x2 | %10
 !5!A,,4 x2 | !5!C,4 x2 | !5!A,,4 x2 | !5!C,4 x2 | !5!A,,4 x2 | !4!D,6- | !4!D,4 x2 | !4!D,6 | %18
 !4!F,6 | !4!D,6 | !4!F,6 | !5!B,,6- | !5!B,,4 x2 | !6!E,,4 !6!G,,2 | !5!B,,2 x2 x2 | !6!G,,6- | %26
 !6!G,,6 | !5!A,,6- | !5!A,,4 x2 | !5!C,4 x2 | !5!A,,6 | !4!D,6 | !5!D,4 |: x2 | !5!A,,6 | %35
 !5!A,,6 | !4!D,4 x2 | !5!A,,6 | !5!C,6 | !5!A,,6 | !4!D,6 | !5!A,,6 | !5!C,2 x2 x2 | %43
 !5!^D,2 x2 x2 | !6!E,,6 | !6!G,,6 | !5!A,,6 | !5!A,,6 | !4!D,6 | !5!D,4 :|[K:G] x2 | %51
 !6!F,,2 !4!D,2 !3!A,2 | !6!F,,2 !4!D,2 !3!A,2 | !6!G,,2 !4!D,2 !3!G,2 | !6!G,,2 !4!D,2 !3!G,2 | %55
 !5!A,,2 !4!D,2 !3!A,2 | !6!F,,2 !4!D,2 !3!A,2 | !6!G,,2 !4!D,2 !3!G,2 | !6!G,,2 !5!B,,2 !4!D,2 | %59
 !6!E,,2 !4!E,2 !3!^G,2 | !6!E,,2 !4!E,2 !3!^G,2 | !5!A,,2 !4!E,2 !3!A,2 | !5!A,,2 !5!B,,2 !5!C,2 | %63
 !4!D,4 x2 | !4!D,4 x2 | !4!D,6 | !6!G,,4 x2 || !6!E,,6 | !6!E,,6 | !5!A,,6 | !5!A,,6 | !5!B,,6 | %72
 !5!B,,6 | !6!E,,6 | !6!E,,6 | !6!E,,6 | !6!E,,6 | !5!A,,6 | !5!A,,6 | !6!B,,2 x2 x2 | !5!B,,4 x2 | %81
 !5!B,,4 !4!^D,2 | !6!E,,2 x2 |: x2 | !6!F,,6 | !6!F,,6 | !6!G,,6 | !5!B,,6 | !5!A,,6 | !6!F,,6 | %90
 !6!G,,6 | !5!B,,6 | !6!E,,6 | !6!E,,6 | !5!A,,6 | x2 x2 x2 | !4!D,6 | !4!D,6 | !6!G,,6 | %99
 !6!G,,4 |] %100
V:6
 x2 | x6 | x6 | x6 | x6 | x6 | x6 | x6 | x6 | x6 | x6 | x6 | x6 | x6 | x6 | x6 | x6 | x6 | x6 | %19
 x6 | x6 | x6 | x6 | x6 | x6 | x6 | x6 | x6 | x6 | x6 | x6 | x6 | x4 |: x2 | x6 | x6 | x6 | x6 | %38
 x6 | x6 | x6 | x6 | x6 | x6 | x6 | x6 | x6 | x6 | x6 | x4 :|[K:G] x2 | x6 | x6 | x6 | x6 | x6 | %56
 x6 | x6 | x6 | x6 | x6 | x6 | x6 | x6 | x6 | x6 | x6 || x6 | x6 | x6 | x6 | x6 | x6 | x6 | x6 | %75
 x6 | x6 | x6 | x6 | x6 | x6 | x6 | x4 |: x2 | x2 [!4!D,!3!A,]2 [!4!D,!3!A,]2 | x6 | %86
 x2 [!4!D,!3!G,]2 [!4!D,!3!G,]2 | x6 | x2 [!4!D,!3!A,]2 [!4!D,!3!A,]2 | %89
 x2 [!4!D,!3!A,]2 [!4!D,!3!A,]2 | x2 [!4!D,!3!G,]2 [!4!D,!3!G,]2 | x2 [!4!D,!3!G,]2 [!4!D,!3!G,]2 | %92
 x2 [!4!E,!3!^G,]2 [!4!E,!3!G,]2 | x6 | x2 [!4!E,!3!A,]2 [!4!E,!3!A,]2 | x6 | x6 | x6 | x6 | x4 |] %100

